X: 35898
T: Sandy MacIntyre's
R: march
M: 
K: Amajor
M:2/4
|:A/F/|EE/<F/ AA/<B/|c/>B/A/<c/ (ea)|ff/>a/ f/>e/c/>f/|e/>c/B/<A/ Bc|
EE/<F/ AA/<B/|c/>B/A/<c/ (ea)|ff/<a/ f/>e/c/<B/|cA A:|
|:c/d/|ee/<f/ e/>d/c/<d/|e/>d/c/<d/ (ea)|ff/<g/ f/>e/f/<g/|a/>g/f/<e/ ca|
ee/<f/ e/>d/c/<d/|e/>d/c/<d/ (ea)|ff/>a/ f/>e/c/<B/|cA A:|
|:f/g/|a/>b/a/<g/ fe/<f/|e/>d/c/<d/ ef/g/|a/>b/a/<g/ fe/<f/|e/>c/A/>c/ Bf/<g/|
a/>b/a/<g/ fe/<f/|e/>d/c/<d/ ea|ff/<a/ f/>e/c/<B/|cA A:|

